popups.svg

<?xml version="1.0" encoding="UTF-8" standalone="no"?>
<svg width="264px" height="162px" viewBox="0 0 264 162" version="1.1" xmlns="http://www.w3.org/2000/svg" xmlns:xlink="http://www.w3.org/1999/xlink" xmlns:sketch="http://www.bohemiancoding.com/sketch/ns">
    <title>NavigationPopups_BetaFeaturesIcon</title>
    <description>Created with Sketch (http://www.bohemiancoding.com/sketch)</description>
    <defs>
        <path id="path-1" d="M254,43 L216,43 L216,156.18 L223.551,162 L237.362,152 L251.253,162 L254,159.95 L254,43 Z"></path>
        <filter x="-20%" y="-20%" width="140%" height="140%" filterUnits="objectBoundingBox" id="filter-2">
            <feOffset dx="1" dy="1" in="SourceAlpha" result="shadowOffsetOuter1"></feOffset>
            <feGaussianBlur stdDeviation="0" in="shadowOffsetOuter1" result="shadowBlurOuter1"></feGaussianBlur>
            <feColorMatrix values="0 0 0 0 0.831438303   0 0 0 0 0.831319273   0 0 0 0 0.831478775  0 0 0 0.7 0" in="shadowBlurOuter1" type="matrix" result="shadowMatrixOuter1"></feColorMatrix>
            <feMerge>
                <feMergeNode in="shadowMatrixOuter1"></feMergeNode>
                <feMergeNode in="SourceGraphic"></feMergeNode>
            </feMerge>
        </filter>
    </defs>
    <g id="Page-1" stroke="none" stroke-width="1" fill="none" fill-rule="evenodd" sketch:type="MSPage">
        <g id="Group" sketch:type="MSLayerGroup">
            <path d="M24.833,151.362 L13.366,161.357 L0.5,151.749 L0.5,0.5 L263.5,0.5 L263.5,152.249 L254.5,158.954 L254.5,42.5 L215.5,42.5 L215.5,155.1 L211.107,151.369 L203.5,156.699 L203.5,42.5 L48.5,42.5 L48.5,153.349 L38.749,161.38 L24.833,151.362 Z" id="Shape" fill="#FFFFFF" sketch:type="MSShapeGroup"></path>
            <path d="M263,1 L263,151.998 L255,157.958 L255,43 L255,42 L254,42 L216,42 L215,42 L215,43 L215,154.019 L211.726,151.24 L211.137,150.741 L210.504,151.181 L204,155.738 L204,43 L204,42 L203,42 L49,42 L48,42 L48,43 L48,153.099 L38.743,160.76 L25.448,151.191 L24.804,150.726 L24.206,151.247 L13.342,160.717 L1,151.499 L1,1 L263,1 L263,1 Z M264,0 L0,0 L0,152 L13.391,162 L24.864,152 L38.755,162 L49,153.6 L49,43 L203,43 L203,157.66 L211.078,152 L216,156.18 L216,43 L254,43 L254,159.95 L264,152.5 L264,0 L264,0 L264,0 L264,0 Z" id="Shape" fill="#E5E5E5" sketch:type="MSShapeGroup"></path>
        </g>
        <path d="M203,43 L49,43 L49,153.6 L51.145,152 L63.7,162 L77.509,152 L91.738,162 L104.71,152 L117.683,162 L131.494,152 L143.63,162 L157.021,152 L171.25,162 L184.222,152 L197.196,162 L203,157.66 L203,43 Z" id="Shape" fill="#E5E5E5" sketch:type="MSShapeGroup"></path>
        <path d="M11,36 C11,28.268 17.268,22 25,22 C32.732,22 39,28.268 39,36 C39,43.732 32.732,50 25,50 C17.268,50 11,43.732 11,36 C11,36 11,43.732 11,36 L11,36 L11,36 Z" id="Ellipse" fill="#E5E5E5" sketch:type="MSShapeGroup"></path>
        <g id="Shape" opacity="0.5">
            <use fill="#E5E5E5" fill-rule="evenodd" sketch:type="MSShapeGroup" xlink:href="#path-1"></use>
            <use fill="none" xlink:href="#path-1"></use>
        </g>
        <path d="M38,107 L38,72 L13,72 L13,107 L38,107 L38,107 L38,107 L38,107 Z" id="Shape" fill="#E5E5E5" sketch:type="MSShapeGroup"></path>
        <path d="M232.51,5 L258.51,5 L258.51,11 L232.51,11 L232.51,5 L232.51,5 L232.51,5 L232.51,5 Z" id="Shape" fill="#E5E5E5" sketch:type="MSShapeGroup"></path>
        <rect id="Rectangle" fill="#E5E5E5" sketch:type="MSShapeGroup" x="208.51" y="5" width="22" height="6"></rect>
        <path d="M142,6 L142,10 L50,10 L50,6 L142,6 L142,6 Z M143,5 L49,5 L49,11 L143,11 L143,5 L143,5 L143,5 L143,5 Z" id="Shape" fill="#E5E5E5" sketch:type="MSShapeGroup"></path>
        <rect id="Rectangle" fill="#E5E5E5" sketch:type="MSShapeGroup" x="184.51" y="5" width="22" height="6"></rect>
        <rect id="Rectangle" fill="#E5E5E5" sketch:type="MSShapeGroup" x="161.51" y="5" width="13" height="6"></rect>
        <rect id="Rectangle" fill="#E5E5E5" sketch:type="MSShapeGroup" x="176.51" y="5" width="6" height="6"></rect>
        <rect id="Rectangle" fill="#E5E5E5" sketch:type="MSShapeGroup" x="153.51" y="5" width="6" height="6"></rect>
        <rect id="Rectangle" fill="#E5E5E5" sketch:type="MSShapeGroup" x="9" y="5" width="32" height="6"></rect>
        <path d="M2,14.5 L262,14.5" id="Shape" stroke="#E5E5E5" fill="#E5E5E5" sketch:type="MSShapeGroup"></path>
        <rect id="Rectangle" fill="#E5E5E5" sketch:type="MSShapeGroup" x="52" y="7" width="2" height="2"></rect>
        <path d="M38,59 L38,54 L13,54 L13,59 L38,59 L38,59 L38,59 L38,59 Z" id="Shape" fill="#E5E5E5" sketch:type="MSShapeGroup"></path>
        <g id="Group" sketch:type="MSLayerGroup" transform="translate(70.010000, 68.000000)">
            <path d="M53.7462727,0 L15.6050641,0 L15.6050641,7.78226573 L53.7462727,7.78226573 L53.7462727,0 Z" id="Shape-copy" fill="#9B9B9B" sketch:type="MSShapeGroup"></path>
            <path d="M110.477774,35.0201958 L110.477774,26.2651468 L59.6640373,26.2651468 L59.6640373,35.0201958 L110.477774,35.0201958 L110.477774,35.0201958 L110.477774,35.0201958 L110.477774,35.0201958 Z" id="Shape-copy-2" fill="#9B9B9B" sketch:type="MSShapeGroup"></path>
            <path d="M20.7527086,12.6461818 L-0.081065268,12.6461818 L-0.081065268,21.2796329 L20.7527086,21.2796329 L20.7527086,12.6461818 Z" id="Shape-copy-2" fill="#9B9B9B" sketch:type="MSShapeGroup"></path>
            <path d="M119.287542,20.4284475 L119.287542,12.6461818 L81.5921923,12.6461818 L81.5921923,20.4284475 L110.775689,20.4284475 L119.287542,20.4284475 Z" id="Shape-copy-4" fill="#9B9B9B" sketch:type="MSShapeGroup"></path>
            <path d="M30.6426713,26.1435489 L4.94498135,26.1435489 L4.94498135,33.9258147 L30.6426713,33.9258147 L30.6426713,26.1435489 Z" id="Shape-copy-3" fill="#9B9B9B" sketch:type="MSShapeGroup"></path>
            <path d="M105.222718,0 L59.0155151,0 L59.0155151,7.78226573 L105.222718,7.78226573 L105.222718,0 Z" id="Shape-copy-5" fill="#9B9B9B" sketch:type="MSShapeGroup"></path>
            <path d="M24.7249068,12.6461818 L24.7249068,21.8470897 L76.2824172,21.8470897 L76.2824172,12.6461818 L24.7249068,12.6461818 Z" id="Shape" fill="#0E73FC" sketch:type="MSShapeGroup"></path>
        </g>
        <g id="Rectangle-28" sketch:type="MSLayerGroup" transform="translate(94.000000, 94.000000)" filter="url(#filter-2)" fill="#FFFFFF">
            <g sketch:type="MSShapeGroup">
                <rect x="0" y="0" width="75" height="44"></rect>
            </g>
        </g>
        <path d="" id="Path-34" stroke="#979797" sketch:type="MSShapeGroup"></path>
        <path d="M169,94 L138,94 L138,138 L169,138 L169,94 L169,94 L169,94 L169,94 Z M150.833059,118.129032 L156.737318,127.782065 L159.943323,124.824129 L164.772727,130.875406 L143.636364,130.903226 L149.880409,118.129032 L150.833059,118.129032 Z" id="Shape" fill="#0E73FC" sketch:type="MSShapeGroup"></path>
        <rect id="Rectangle-8-copy" fill="#D0D0D0" sketch:type="MSShapeGroup" x="101" y="100" width="20" height="1" rx="1"></rect>
        <rect id="Rectangle-8-copy-2" fill="#D0D0D0" sketch:type="MSShapeGroup" x="101" y="104" width="20" height="1" rx="1"></rect>
        <rect id="Rectangle-8-copy-3" fill="#D0D0D0" sketch:type="MSShapeGroup" x="101" y="108" width="20" height="1" rx="1"></rect>
        <rect id="Rectangle-8-copy-4" fill="#D0D0D0" sketch:type="MSShapeGroup" x="101" y="112" width="28" height="1" rx="1"></rect>
        <rect id="Rectangle-8-copy-5" fill="#D0D0D0" sketch:type="MSShapeGroup" x="101" y="116" width="28" height="1" rx="1"></rect>
        <rect id="Rectangle-8-copy-6" fill="#D0D0D0" sketch:type="MSShapeGroup" x="101" y="120" width="28" height="1" rx="1"></rect>
        <rect id="Rectangle-8-copy-7" fill="#D0D0D0" sketch:type="MSShapeGroup" x="101" y="124" width="28" height="1" rx="1"></rect>
        <rect id="Rectangle-8-copy-8" fill="#D0D0D0" sketch:type="MSShapeGroup" x="101" y="128" width="28" height="1" rx="1"></rect>
    </g>
</svg>

<svg width="264" height="162" viewBox="0 0 264 162" xmlns="http://www.w3.org/2000/svg" xmlns:xlink="http://www.w3.org/1999/xlink" xmlns:sketch="http://www.bohemiancoding.com/sketch/ns"><title>NavigationPopups_BetaFeaturesIcon</title><defs><path id="a" d="M254 43h-38v113.18l7.551 5.82 13.811-10 13.891 10 2.747-2.05v-116.95z"/><filter x="-20%" y="-20%" width="140%" height="140%" filterUnits="objectBoundingBox" id="b"><feOffset dx="1" dy="1" in="SourceAlpha" result="shadowOffsetOuter1"/><feGaussianBlur in="shadowOffsetOuter1" result="shadowBlurOuter1"/><feColorMatrix values="0 0 0 0 0.831438303 0 0 0 0 0.831319273 0 0 0 0 0.831478775 0 0 0 0.7 0" in="shadowBlurOuter1" result="shadowMatrixOuter1"/><feMerge><feMergeNode in="shadowMatrixOuter1"/><feMergeNode in="SourceGraphic"/></feMerge></filter></defs><g sketch:type="MSPage" fill="none"><g id="Group" sketch:type="MSLayerGroup"><path d="M24.833 151.362l-11.467 9.995-12.866-9.608v-151.249h263v151.749l-9 6.705v-116.454h-39v112.6l-4.393-3.731-7.607 5.33v-114.199h-155v110.849l-9.751 8.031-13.916-10.018z" id="Shape" fill="#fff" sketch:type="MSShapeGroup"/><path d="M263 1v150.998l-8 5.96v-115.958h-40v112.019l-3.274-2.779-.589-.499-.633.44-6.504 4.557v-113.738h-156v111.099l-9.257 7.661-13.295-9.569-.644-.465-.598.521-10.864 9.47-12.342-9.218v-150.499h262zm1-1h-264v152l13.391 10 11.473-10 13.891 10 10.245-8.4v-110.6h154v114.66l8.078-5.66 4.922 4.18v-113.18h38v116.95l10-7.45v-152.5z" id="Shape" fill="#E5E5E5" sketch:type="MSShapeGroup"/></g><path d="M203 43h-154v110.6l2.145-1.6 12.555 10 13.809-10 14.229 10 12.972-10 12.973 10 13.811-10 12.136 10 13.391-10 14.229 10 12.972-10 12.974 10 5.804-4.34v-114.66z" id="Shape" fill="#E5E5E5" sketch:type="MSShapeGroup"/><path d="M11 36c0-7.732 6.268-14 14-14s14 6.268 14 14-6.268 14-14 14-14-6.268-14-14z" fill="#E5E5E5" sketch:type="MSShapeGroup"/><g id="Shape" opacity=".5"><use fill="#E5E5E5" sketch:type="MSShapeGroup" xlink:href="#a"/><use xlink:href="#a"/></g><path d="M38 107v-35h-25v35h25zM232.51 5h26v6h-26v-6z" id="Shape" fill="#E5E5E5" sketch:type="MSShapeGroup"/><path id="Rectangle" fill="#E5E5E5" sketch:type="MSShapeGroup" d="M208.51 5h22v6h-22z"/><path d="M142 6v4h-92v-4h92zm1-1h-94v6h94v-6z" id="Shape" fill="#E5E5E5" sketch:type="MSShapeGroup"/><path id="Rectangle" fill="#E5E5E5" sketch:type="MSShapeGroup" d="M184.51 5h22v6h-22zM161.51 5h13v6h-13zM176.51 5h6v6h-6zM153.51 5h6v6h-6zM9 5h32v6h-32z"/><path d="M2 14.5h260" id="Shape" stroke="#E5E5E5" fill="#E5E5E5" sketch:type="MSShapeGroup"/><path fill="#E5E5E5" sketch:type="MSShapeGroup" d="M52 7h2v2h-2z"/><path d="M38 59v-5h-25v5h25z" id="Shape" fill="#E5E5E5" sketch:type="MSShapeGroup"/><g sketch:type="MSLayerGroup"><path d="M123.756 68h-38.141v7.782h38.141v-7.782z" fill="#9B9B9B" sketch:type="MSShapeGroup"/><path d="M180.488 103.02v-8.755h-50.814v8.755h50.814zM90.763 80.646h-20.834v8.633h20.834v-8.633z" fill="#9B9B9B" sketch:type="MSShapeGroup"/><path d="M189.298 88.428v-7.782h-37.695v7.782h37.695z" fill="#9B9B9B" sketch:type="MSShapeGroup"/><path d="M100.653 94.144h-25.698v7.782h25.698v-7.782z" fill="#9B9B9B" sketch:type="MSShapeGroup"/><path d="M175.233 68h-46.207v7.782h46.207v-7.782z" fill="#9B9B9B" sketch:type="MSShapeGroup"/><path d="M94.735 80.646v9.201h51.558v-9.201h-51.558z" id="Shape" fill="#0E73FC" sketch:type="MSShapeGroup"/></g><path d="M94 94h75v44h-75z" sketch:type="MSShapeGroup" filter="url(#b)" fill="#fff"/><path stroke="#979797" sketch:type="MSShapeGroup"/><path d="M169 94h-31v44h31v-44zm-18.167 24.129l5.904 9.653 3.206-2.958 4.829 6.051-21.136.028 6.244-12.774h.953z" fill="#0E73FC" sketch:type="MSShapeGroup"/><rect fill="#D0D0D0" sketch:type="MSShapeGroup" x="101" y="100" width="20" height="1" rx="1"/><rect fill="#D0D0D0" sketch:type="MSShapeGroup" x="101" y="104" width="20" height="1" rx="1"/><rect fill="#D0D0D0" sketch:type="MSShapeGroup" x="101" y="108" width="20" height="1" rx="1"/><rect fill="#D0D0D0" sketch:type="MSShapeGroup" x="101" y="112" width="28" height="1" rx="1"/><rect fill="#D0D0D0" sketch:type="MSShapeGroup" x="101" y="116" width="28" height="1" rx="1"/><rect fill="#D0D0D0" sketch:type="MSShapeGroup" x="101" y="120" width="28" height="1" rx="1"/><rect fill="#D0D0D0" sketch:type="MSShapeGroup" x="101" y="124" width="28" height="1" rx="1"/><rect fill="#D0D0D0" sketch:type="MSShapeGroup" x="101" y="128" width="28" height="1" rx="1"/></g></svg>
